X:1
T:bwv 1014a
T:Sonata for harpsichord and violin in B minor (A = 415 Hz)
T:BWV 1014
T:J. S. Bach
%%score { ( 1 3 ) | 2 } { ( 4 5 ) | 6 }
L:1/8
M:6/4
K:Db
V:1 treble nm="ハープ"
V:3 treble 
V:2 bass 
V:4 treble nm="ハープ"
V:5 treble 
V:6 bass 
V:1
"^Adagio" z12 | z12 | z12 | z12 | %4
 g/4f/4g/4f/4g/4f/4g/4f/4 g/4f/4g/4f/4g/4f/4g/4f/4 g/4f/4g/4f/4g/4f/4g/4f/4 g/4f/4g/4f/4g/4f/4g/4f/4 g/4f/4g/4f/4g/4f/4g/4f/4 g/4f/4g/4f/4g/4f/4g/4f/4 | %5
 g/4f/4g/4f/4g/4f/4g/4f/4 g/4f/4g/4f/4g/4f/4g/4f/4 g/4f/4g/4f/4g/4f/4g/4f/4 g/4f/4g/4f/4g/4f/4g/4f/4 g/4f/4g/4f/4g/a/ f/e/=d/e/4c/4 | %6
 B2 c'/4b/4c'/4b/4c'/4b/4c'/4b/4 c'/4b/4c'/4b/4c'/4b/4c'/4b/4 c'/4b/4c'/4b/4c'/4b/4c'/4b/4 c'/4b/4c'/4b/4c'/4b/4c'/4b/4 c'/4b/4c'/4b/4c'/4b/4c'/4b/4 | %7
 c'/4b/4c'/4b/4c'/4b/4c'/4b/4 c'/4b/4c'/4b/4c'/4b/4c'/4b/4 c'/4b/4c'/4b/4c'/4b/4c'/4b/4 c'/4b/4c'/4b/4c'/4b/4c'/4b/4 c'/4b/4c'/d'/c'/ b/a/g/a/4f/4 | %8
 f/4e/4f/4e/4f/4e/4f/4e/4 f/4e/4f/4e/4f/4e/4f/4e/4 f/4e/4f/4e/4f/4e/4f/4e/4 f/4e/4f/4e/4f/4e/4f/4e/4 f/4e/4f/4e/4f/4e/4f/4e/4 f/4e/4f/4e/4f/4e/4f/4e/4 | %9
 f/4e/4f/4e/4f/4e/4f/4e/4 f/4e/4f/4e/4f/4e/4f/4e/4 f/4e/4f/4e/4f/4e/4f/4e/4 f/4e/4d/c/d/ e/d/e/f/4g/4 g/4f/4g/4f/4{ef}g/e/ | %10
 e/4d/4e/4d/4e/4d/4e/4d/4 e/4d/4e/4d/4c B/=A/B B6 | b6- b3 a a/4=g/4a/4g/4a/4g/4a/4g/4{fga} | %12
 a12- | a=g_f=f d'2- d'c'bagf | f/4e/4f/4e/4f/4e/4f/4e/4 f/4e/4f/4e/4=d c2 z6 | z aa=ggf f6- | %16
 fbbaa=g gbb=eeg | =gBBd d2- d2 cBA=G | Ac=g=e f2- fb a/4g/4a/4g/4a/4g/4a/4g/4 a/4g/4a/4g/4f | %19
 f6- f4 z2 | a6- aggffg | g6- g6- | gffeeg gffeed | d12- | dcedgf edce=AB | =A3 =G F2 F6- | %26
 FddccB B6- | Beeddc cee=AAc | cEEG G2- G2 FEDC | %29
 DFc=A B2- Be d/4c/4d/4c/4d/4c/4d/4c/4 d/4c/4d/4c/4B | B6- B2- B/A/G/F/ EF/=D/ | %31
 E6- E2- E/F/G/F/ E/D/_C/D/4B,/4 | _CEEGG_c ceegg=a | =a/g/f/e/ d/c/e/d/ c/B/=A/c/ [Ag]2 z2 z2 | %34
 fdce=AB GFdcBA | !fermata!B12 | z12 |[M:2/2][Q:1/4=160]"^Allegro" f2 gf ef g2 | %38
 a/4g/4a/4g/4a/4g/4a/4g/4 f2 z2 e2 | defB d2 d/4c/4d/4c/4d/4c/4d/4c/4 | BdcB fB=gB | a=gba gf=ef | %42
 =gf=e=d cBA=G | F2 f4 =e2 | a8 | g8 | fdef Bf=Gf | ecde =AeFe | d2 B2 g2 e2 | =a2 c'2 a2 f2- | %50
 fcde =Ge=Ae | d4 z2 b2 | ecBA eAfA | g2 B2 g4 | fdcB fB=gB | a8- | abc'd' =g4- | gfba =gf=ef | %58
 =gf=e=d cBA=G | F2 f4 =e2 | f2 c2 f4- | f2 B2 e4- | efga d4- | defg c4 | f2 gf ef g2 | %65
 a/4g/4a/4g/4a/4g/4a/4g/4 f2 z2 e2 | defB d2 d/4c/4d/4c/4d/4c/4d/4c/4 | BdcB eBfB | gBfB eBgB | %69
 fBeB dBfB | egfe =aebg | c'8- | c'2 f2 b2 a2 | g2 f2 e4- | egfe dBeB | fB g2{de} d2 cB | B4 z4 | %77
 A2 BA GA B2 | c/4B/4c/4B/4c/4B/4c/4B/4 A2 z2 G2 | FGAD G2 G/4F/4G/4F/4G/4F/4G/4F/4 | EDEF EFGA | %81
 B2 _cB AB c2 | _c/4B/4c/4B/4c/4B/4c/4B/4 B2 z2 A2 | GABE A2 A/4G/4A/4G/4A/4G/4A/4G/4 | FEFG FGAB | %85
 _c2 dc Bc d2 | B2 ed cd e2 | A3 B F2 ED | D2 A2 d2 B2 | =G2 B2 G2 E2- | EBcd Fd=Gd | ceag fe=de | %92
 fe=dc BAGF | E2 e4 =d2 | e2 gf ef g2 | a/4g/4a/4g/4a/4g/4a/4g/4 f2 z2 e2 | defB d2 c2 | %97
 Bf=ga bagf | edef =gafg | a=gab c'b=ag | fef=g =abga | b=abc' d'c'b_a | =gfga b2 d2- | dcBc d4- | %104
 dcBc dfed | c2 dc Bc d2 | d2 ed cd e2 | e2 a2 =g2 a2- | a2 =gf gbBc | d2 ed cd e2 | e2 fe de f2 | %111
 f2 b2 =a2 b2- | b2 a=g ac'cd | e2 cA a4- | a2 fd d'4- | d'bc'd' =g3 a | %116
 b/4a/4b/4a/4b/4a/4b/4a/4 b/4a/4b/4a/4b/4a/4b/4a/4 b/4a/4b/4a/4b/4a/4b/4a/4 b/4a/4b/4a/4b/4a/4b/4a/4 | %117
 b/4a/4b/4a/4b/4a/4b/4a/4 b/4a/4b/4a/4b/4a/4b/4a/4 b/4a/4b/4a/4b/4a/4b/4a/4 b/4a/4b/4a/4b/4a/4b/4a/4 | %118
 b/4a/4b/4a/4b/4a/4b/4a/4 b/4a/4b/4a/4b/4a/4b/4a/4 b/4a/4b/4a/4b/4a/4b/4a/4 b/4a/4b/4a/4b/4a/4b/4a/4 | %119
 b/4a/4b/4a/4b/4a/4b/4a/4 A2 d4- | dBcd =GdEd | c4- cf=ga | b4- b=ef=g | a6 d'2- | d'2 =g2 c'2 b2 | %125
 a=gba gf=ef | =gf=e=d c4 | z8 | c2 dc Bc d2 | e/4d/4e/4d/4e/4d/4e/4d/4 c2 z2 B2 | ABcF A2 =G2 | %131
 F2 c2 dcB=A | B3 f f=ef=g | A3 f f=ef=g | =G3 A BdcB | =e4 z2 e2 | %136
 f3 =g f/4=e/4f/4e/4f/4e/4f/4e/4 f/4e/4f/4e/4f | f4 z4 | f2 gf ef g2 | %139
 a/4g/4a/4g/4a/4g/4a/4g/4 f2 z2 e2 | defB d2 d/4c/4d/4c/4d/4c/4d/4c/4 | BdcB fB=gB | a=gba gf=ef | %143
 =gf=e=d cBA=G | F2 f4 =e2 | a8 | g8 | fdef Bf=Gf | ecde =AeFe | d2 B2 g2 e2 | =a2 c'2 a2 f2- | %151
 fcde =Ge=Ae | d4 z2 b2 | ecBA eAfA | g2 B2 g4 | fdcB fB=gB | a8- | abc'd' =g4- | gfba =gf=ef | %159
 =gf=e=d cBA=G | F2 f4 =e2 | f2 c2 f4- | f2 B2 e4- | efga d4- | defg c2 z2 | f2 gf ef g2 | %166
 a/4g/4a/4g/4a/4g/4a/4g/4 f2 z2 e2 | defB d2 d/4c/4d/4c/4d/4c/4d/4c/4 | BdcB eBfB | gBfB eBgB | %170
 fBeB dBfB | egfe =aebg | c'8- | c'2 f2 b2 a2 | g2 f2 e4- | egfe dBeB | %176
 fB g2 e/4d/4e/4d/4e/4d/4e/4d/4cB | B4 z4 |[M:4/4]"^Andante"[Q:1/4=100] Ta8- | %179
 a/g/b/a/ g/f/e/d/ cB/A/ z e | f/e/g/f/ z/ a/g/f/ g/f/b/a/ z/ a/d'/c'/ | %181
 d'/c'/4b/4a/g/ fe/d/ d/e/f/=g/ a/g/a/b/ | c>B d/c/B/A/ e4- | e/d/f/e/ d/c/B/A/ =GF/E/ z B | %184
 c/B/d/c/ z/ e/d/c/ d/c/f/e/ z/ e/a/=g/ | a/=g/4f/4e/d/ PcB/A/ A2 z _c- | %186
 c/B/=A/B/ e2- e3/2f/4g/4 f/e/d/e/4=c/4 | dTe f2- f/e/g/f/ b/=a/c'/e/ | %188
 d{ef}g- g/f/e/d/ c/B/d/c/ e/d/f/e/ | f>g dc/B/ Bf/g/ a/g/b/a/ | %190
 z a/b/4_c'/4 b/a/g/f/ ge/f/ g/f/a/g/ | z g/a/4b/4 a/g/f/g/4e/4 fe d2- | %192
 d/c/B/A/ =G/F/=E/F/ EB =g2- | g/f/a/=g/ b/a/g/a/ f/=e/f/B/ A=G/F/ | Fc a2- a/B/e/=d/ f/e/g/f/ | %195
 g4- g/A/d/c/ e/d/f/e/ | f3/2g/4a/4 g/f/e/d/ a4- | a/g/b/a/ g/f/e/d/ cB/A/ z e | %198
 f/e/g/f/ z/ a/g/f/ g/f/b/a/ z/ a/d'/c'/ | d'/c'/4b/4a/g/ fe/d/ dA/B/ _c/B/d/c/ | %200
 z _c/d/4e/4 d/c/B/A/ BB/=c/ d/c/e/d/ | z d/e/4f/4 e/d/c/B/ c/B/c/d/ e/d/f/e/ | %202
 z e/f/4g/4 f/e/d/c/ d/c/B/A/ G/F/E/F/ | Ed g2- g/f/e/d/ c/B/A/B/ | Ag e'2- e'/d'/c'/b/ a/g/f/g/ | %205
 f/e/g/f/ e/d/c/d/ c2 z a | g/f/b/a/ fTe/d/ !fermata!d4 | z8 | %208
[M:3/4]"^Allegro"[Q:1/4=130] z f ff ff | fb/=a/ bf ff | fc'/b/ c'f ff | %211
 fd'/4c'/4b/ c'c'/4b/4a/ bb/4a/4=g/ | aF/=G/ A/c/f/c/ A/c/G/c/ | A/=G/F/G/ A/c/f/c/ B/A/G/F/ | %214
 =E/=D/C/D/ E/F/=G/A/ B/A/B/G/ | AF z2 B2- | Bc/B/ d/c/B/A/ T=G>F | F/=E/F/=G/ A/B/c/d/ e/d/e/c/ | %218
 d/c/B/c/ d/f/b/f/ e/d/c/B/ | =A/=G/F/G/ A/B/c/d/ e/d/e/c/ | d b2 a2 g | c' g2 f2 e | a e2 d2 c | %223
 f/e/d/c/ B/c/d/e/ f=a | bf df Tb3/2=a/4b/4 | c'/b/=a/=g/ f/g/a/b/ c'/b/c'/a/ | b g2 f2 e- | %227
 e/g/f/e/ c'/b/=a/=g/ f/e/d/c/ | B/=A/B/e/ Tc3 B | B2 z B/c/ d/e/Te/d/4e/4 | f6 | z f ff ff | %232
 fb/=a/ bf ff | fc'/b/ c'f ff | fd'/4c'/4b/ c'c'/4b/4a/ bb/4a/4=g/ | aF/=G/ A/c/f/c/ A/c/G/c/ | %236
 A/=G/F/G/ A/c/f/c/ B/A/G/F/ | =E/=D/C/D/ E/F/=G/A/ B/A/B/G/ | AF z2 B2- | Bc/B/ d/c/B/A/ T=G>F | %240
 F/=E/F/=G/ A/B/c/d/ e/d/e/c/ | d/c/B/c/ d/f/b/f/ e/d/c/B/ | =A/=G/F/G/ A/B/c/d/ e/d/e/c/ | %243
 d b2 a2 g | c' g2 f2 e | a e2 d2 c | f/e/d/c/ B/c/d/e/ f=a | bf df Tb3/2=a/4b/4 | %248
 c'/b/=a/=g/ f/g/a/b/ c'/b/c'/a/ | b g2 f2 e- | e/g/f/e/ c'/b/=a/=g/ f/e/d/c/ | B/=A/B/e/ Tc3 B | %252
 B2 z B/c/ d/e/Te/d/4e/4 | f6 | z a aa aa | a_c'/b/ aa aa | af/g/ ag/a/ bf | %257
 g/f/e/f/ g/a/b/a/ g/b/f/b/ | e/d/c/d/ e/f/g/f/ e/g/d/g/ | c/d/e/d/ c/B/A/G/ F/E/D/C/ | %260
 Df/g/ a/g/f/e/ dc | Bd/e/ f/e/d/c/ BA | =G=g/f/ gb eg | ae ee ee | ea/=g/ ae ee | eb/a/ be ee | %266
 ea/4b/4_c'/ bb/4a/4g/ aa/4g/4f/ | g/f/e/f/ g/b/e'/b/ g/b/f/b/ | g/f/e/f/ g/b/e'/b/ a/g/f/e/ | %269
 =d/c/B/c/ d/e/f/g/ a/g/a/f/ | g _c'2 b2 a- | a/g/f/g/ a/b/_c'/b/ a/c'/g/c'/ | %272
 f/e/=d/e/ f/g/a/g/ f/a/e/a/ | =d/e/f/e/ d/c/B/A/ G/F/E/=D/ | EG GG GG | GB/A/ GG GG | %276
 GE/F/ GF/G/ AE | F/E/F/A/ E/D/E/A/ D/C/D/A/ | C/B,/C/A/ D/C/D/F/ C/B,/C/F/ | %279
 B,/=A,/B,/F/ C/B,/C/F/ B,/A,/B,/F/ | =A,C F=A TA3/2=G/4A/4 | BF DF TB3/2=A/4B/4 | %282
 c=A F/=G/A/B/ c/B/c/A/ | B g2 f2 e | e3 f d2- | dg Tc3 B | B/F/=G/=A/ B/c/d/e/ f/B/a | g_c cc cc | %288
 _ce/d/ cc cc | c=A/B/ cB/c/ dA | Bc T=A3 B | B6 | z a aa aa | a_c'/b/ aa aa | af/g/ ag/a/ bf | %295
 g/f/e/f/ g/a/b/a/ g/b/f/b/ | e/d/c/d/ e/f/g/f/ e/g/d/g/ | c/d/e/d/ c/B/A/G/ F/E/D/C/ | %298
 Df/g/ a/g/f/e/ dc | Bd/e/ f/e/d/c/ BA | =G=g/f/ gb eg | ae ee ee | ea/=g/ ae ee | eb/a/ be ee | %304
 ea/4b/4_c'/ bb/4a/4g/ aa/4g/4f/ | g/f/e/f/ g/b/e'/b/ g/b/f/b/ | g/f/e/f/ g/b/e'/b/ a/g/f/e/ | %307
 =d/c/B/c/ d/e/f/g/ a/g/a/f/ | g _c'2 b2 a- | a/g/f/g/ a/b/_c'/b/ a/c'/g/c'/ | %310
 f/e/=d/e/ f/g/a/g/ f/a/e/a/ | =d/e/f/e/ d/c/B/A/ G/F/E/=D/ | EG GG GG | GB/A/ GG GG | %314
 GE/F/ GF/G/ AE | F/E/F/A/ E/D/E/A/ D/C/D/A/ | C/B,/C/A/ D/C/D/F/ C/B,/C/F/ | %317
 B,/=A,/B,/F/ C/B,/C/F/ B,/A,/B,/F/ | =A,C F=A TA3/2=G/4A/4 | BF DF TB3/2=A/4B/4 | %320
 c=A F/=G/A/B/ c/B/c/A/ | B g2 f2 e | e3 f d2- | dg Tc3 B | B/F/=G/=A/ B/c/d/e/ f/B/a | g_c cc cc | %326
 _ce/d/ cc cc | c=A/B/ cB/c/ dA | Bc T=A3 B | B6 |] %330
V:2
 z12 | z12 | z12 | z12 | E,2 z4 D,2 z4 | =A,,C,F,=A,=G,A, _A,,2 z4 | G,,B,,E,G,F,G, F,,2 z4 | %7
 E,,G,,B,,E,D,E, D,,2 z4 | C,E,G,B,=A,B, B,,2 z4 | =A,,C,E,G,F,G, F,,4 z2 | %10
 B,,4 z2 B,,D,F,B,=A,B, | =G,,B,,D,=G,F,G, .=E,,2 z4 | F,A,CF=EF D,F,A,DCD | %13
 B,,2 z4 =G,,2 A,,2 B,,2 | C,=E,=G,CB,C A,,C,F,A,G,A, | F,,2 z4 z DDCCB, | B,4 C2 D2 =G,2 B,2 | %17
 =E,F,=G,B,A,B, C,2 z2 E,2 | F,2 D,2 B,,2 C,4 C,,2 | F,,A,,C,F,E,F, E,,2 z4 | %20
 =D,,F,,B,,=D,C,D, B,,,2 z4 | E,G,B,EDE C,E,=A,CB,C | =A,,2 z4 F,,2 z4 | %23
 B,,D,F,B,A,B, G,,B,,D,G,F,G, | E,,2 z4 E,F,F,G,G,F, | F,=A,CFEF D,F,B,DCD | B,,2 z4 z G,G,F,F,E, | %27
 E,4 F,2 G,2 C,2 E,2 | =A,,B,,C,E,D,E, F,,2 z2 A,,2 | B,,2 G,,2 E,,2 F,,4 F,2 | %30
 B,,D,F,B,=A,B, A,,2 z4 | G,,B,,E,G,F,G, F,,2 z4 | E,,12- | E,,6 z6 | D,,2 G,,2 E,,2 F,,4 F,,2 | %35
 B,,D,F,B,=A,B, B,,,6 | z12 |[M:2/2] B,,4 B,4 | =A,2 C2 A,2 F,2 | B,2 D,2 E,2 F,2 | %40
 B,,2 B,2 A,2 =G,2 | F,4[I:staff -1] F4 | =E2 =G2 E2 C2 | F2[I:staff +1] A,2 B,2 C2 | F,4 z2 B,2 | %45
 E,4 z2 A,2 | D,2 B,,2 =G,,2 B,,2 | C,2 =A,,2 F,,2 A,,2 | B,,2 G,F, E,F, G,2 | %49
 A,/4G,/4A,/4G,/4A,/4G,/4A,/4G,/4 F,2 z2 E,2 | D,E,F,B,, D,2 D,/4C,/4D,/4C,/4D,/4C,/4D,/4C,/4 | %51
 B,,D,C,B,, F,B,,=G,B,, | A,2 A,,2 G,,2 F,,2 | E,,2 B,,2 G,,2 E,,2 | B,,2 F,2 D,2 B,,2 | %55
 F,,2 F,2 =D,2 F,2 | =G,,2 =E,2 C,2 E,2 | F,,2 D,C, B,,C, D,2 | %58
 E,/4D,/4E,/4D,/4E,/4D,/4E,/4D,/4 C,2 z2 B,,2 | A,,B,,C,F,, A,,2 =G,,2 | F,,F,=G,A, =D,A,B,,A, | %61
 G,E,F,G, C,G,A,,G, | F,2 B,2 =G,2 B,2 | C2 =A,2 F,2 A,2 | B,CED CB,=A,B, | CB,=A,=G, F,E,D,C, | %66
 B,,2 D,2 E,2 F,2 | G,2 A,2 G,2 F,2 | E,2 D,2 C,2 E,2 | z8 | C,2 D,2 C,2 B,,2 | %71
 =A,,2 =A,2 F,2 A,2 | B,CB,A, G,B,F,B, | E,F,E,D, C,E,B,,E, | =A,,2 F,,2 B,,2 G,,2 | %75
 D,,2 E,,2 F,,4 | B,,B,A,G, F,A,E,A, | D,2 D,2 D,2 D,2 | C,2 C,2 C,2 C,2 | D,2 F,2 E,2 D,2 | %80
 A,,2 A,2 G,2 F,2 | E,2 E,2 E,2 E,2 | =D,2 D,2 D,2 D,2 | E,2 G,2 F,2 E,2 | B,,2 B,2 A,2 G,2 | %85
 F,2 E,2 F,2 D,2 | G,2 F,2 E,2 D,2 | C,2 D,2 A,2 A,,2 | D2 FE DE F2 | %89
 G/4F/4G/4F/4G/4F/4G/4F/4 E2 z2 D2 | CDEA, C2 C/4B,/4C/4B,/4C/4B,/4C/4B,/4 | A,2 F,G, A,2 F,2 | %92
 =D,2 F,2 D,2 B,,2 | E,2 G,,2 A,,2 B,,2 | E,B,ED CB,=A,B, | CB,=A,=G, F,E,D,C, | B,,2 D,2 E,2 F,2 | %97
 B,2 DC B,C D2 | D2 C2 B,2 D2 | C2 ED CD E2 | E2 D2 C2 E2 | D2 FE DE F2 | F2 E2 D2 F2 | %103
 E2 DC B,2 A,2 | =G,A,G,F, E,D,C,B,, | A,,2 A,,2 A,,2 A,,2 | =G,,2 G,,2 G,,2 G,,2 | %107
 A,,2 C,2 B,,2 A,,2 | E,,2 E,2 D,2 C,2 | B,,2 B,,2 B,,2 B,,2 | =A,,2 A,,2 A,,2 A,,2 | %111
 B,,2 D,2 C,2 B,,2 | F,,2 F,2 E,2 D,2 | C,2 B,,2 C,2 A,,2 | D,2 C,2 B,,2 A,,2 | %115
 =G,,2 A,,2 E,2 E,,2 | A,,2 A,,2 B,,2 C,2 | D,2 C,2 B,,2 D,2 | C,2 B,,2 A,,2 C,2 | %119
 B,,2 C,2 B,,2 A,,2 | =G,,2 =G,2 E,2 G,2 | A,B,A,=G, F,A,=D,F, | =G,A,G,F, =E,G,C,E, | %123
 F,=G,F,E, D,F,B,,D, | C,D,C,B,, A,,C,=G,,C, | F,,4 F,4 | =E,2 =G,2 E,2 C,2 | z8 | %128
 F,=G,B,A, G,F,=E,F, | =G,F,=E,=D, C,B,,A,,=G,, | F,,2 A,,2 B,,2 C,2 | F,A,=G,F, B,F,CF, | %132
 DF,CF, B,F,DF, | CF,B,F, A,F,CF, | B,=G,A,B, =E,B,G,B, | C,=G,=E,G, A,,E,C,E, | %136
 F,,2 B,,2 C,2 C,,2 | F,,2 F,G, F,E,D,C, | B,,4 B,4 | =A,2 C2 A,2 F,2 | B,2 D,2 E,2 F,2 | %141
 B,,2 B,2 A,2 =G,2 | F,4 F4 |[I:staff -1] =E2 =G2 E2 C2 | F2[I:staff +1] A,2 B,2 C2 | F,4 z2 B,2 | %146
 E,4 z2 A,2 | D,2 B,,2 =G,,2 B,,2 | C,2 =A,,2 F,,2 A,,2 | B,,2 G,F, E,F, G,2 | %150
 A,/4G,/4A,/4G,/4A,/4G,/4A,/4G,/4 F,2 z2 E,2 | D,E,F,B,, D,2 D,/4C,/4D,/4C,/4D,/4C,/4D,/4C,/4 | %152
 B,,D,C,B,, F,B,,=G,B,, | A,2 A,,2 G,,2 F,,2 | E,,2 B,,2 G,,2 E,,2 | B,,2 F,2 D,2 B,,2 | %156
 F,,2 F,2 =D,2 F,2 | =G,,2 =E,2 C,2 E,2 | F,,2 D,C, B,,C, D,2 | %159
 E,/4D,/4E,/4D,/4E,/4D,/4E,/4D,/4 C,2 z2 B,,2 | A,,B,,C,F,, A,,2 =G,,2 | F,,F,=G,A, =D,A,B,,A, | %162
 G,E,F,G, C,G,A,,G, | F,2 B,2 =G,2 B,2 | C2 =A,2 F,2 A,2 | B,CED CB,=A,B, | CB,=A,=G, F,E,D,C, | %167
 B,,2 D,2 E,2 F,2 | G,2 A,2 G,2 F,2 | E,2 D,2 C,2 E,2 | D,2 C,2 B,,2 D,2 | C,2 D,2 C,2 B,,2 | %172
 =A,,2 =A,2 F,2 A,2 | B,CB,A, G,B,F,B, | E,F,E,D, C,E,B,,E, | =A,,2 F,,2 B,,2 G,,2 | %176
 D,,2 E,,2 F,,4 | B,,4 z4 |[M:4/4] D,DCD A,G,F,E, | D,DCD A,G,F,E, | D,DCD A,G,F,E, | %181
 D,G,A,A,, D,,D,C,B,, | A,,A,=G,A, E,D,C,B,, | A,,A,=G,A, E,D,C,B,, | A,,A,,=G,,A,, E,,D,C,B,, | %185
 A,,D,E,E,, A,,A,G,F, | E,G,C,E, =A,,F,,=G,,A,, | B,,B,=A,B, F,E,D,C, | B,,B,=A,B, F,E,D,C, | %189
 B,,E,F,F,, B,,B,F,=D, | B,,B,A,B, E,A,E,C, | A,,A,G,A, D,C,B,,A,, | =G,,F,,=E,,G,, C,=D,=E,C, | %193
 F,,F,=E,F, D,B,,C,C,, | F,,F,E,F, B,,A,,G,,F,, | E,,E,D,E, A,,G,,F,,E,, | D,,DCD A,G,F,E, | %197
 D,DCD A,G,F,E, | D,D,C,D, A,,G,F,E, | D,G,A,A,, D,D,A,,F,, | D,,D,_C,D, G,,E,B,,=G,, | %201
 E,,E,D,E, A,,A,E,C, | A,,A,G,A, D,C,B,,D, | G,,F,,E,,D,, C,,E,,A,,B,, | C,D,E,F, G,A,B,C | %205
 D/C/B,/A,/ G,/F,/E,/D,/ G,,2 z F,, | B,,G,,A,,A,, !fermata!D,,4 | z8 |[M:3/4] B,2 z B,, B,=A, | %209
 B,2 z B,,/C,/ D,E, | F,2 z =A,/=G,/ A,F, | B,,F, A,,F, =G,,=E, | F,,2 z F,, F,=E, | %213
 F,2 z F,,/=G,,/ A,,B,, | C,2 z =E,/=D,/ _F,C, | F,C E,C D,B, | C,A, =G,F, CC, | F,,F, F,F, F,F, | %218
 F,B,/=A,/ B,F, F,F, | F,C/B,/ CF, F,F, | F,D/4C/4B,/ CC/4B,/4A,/ B,B,/4A,/4G,/ | %221
 A,B,/4A,/4G,/ A,A,/4G,/4F,/ G,G,/4F,/4E,/ | F,G,/4F,/4E,/ F,F,/4E,/4D,/ E,E,/4D,/4C,/ | %223
 D,/C,/B,,/C,/ D,/F,/B,/F,/ D,/F,/C,/F,/ | D,/C,/B,,/C,/ D,/F,/B,/F,/ E,/D,/C,/B,,/ | %225
 =A,,/=G,,/F,,/G,,/ A,,/B,,/C,/D,/ E,/D,/E,/C,/ | D,/C,/B,,/G,/ A,,/F,/E,/F,/ G,,/E,/D,/E,/ | %227
 F,,3 E, D,B,, | G,E, F,E, F,F,, | B,,2 z B, A,G, | F,6 | B,2 z B,, B,=A, | B,2 z B,,/C,/ D,E, | %233
 F,2 z =A,/=G,/ A,F, | B,,F, A,,F, =G,,=E, | F,,2 z F,, F,=E, | F,2 z F,,/=G,,/ A,,B,, | %237
 C,2 z =E,/=D,/ _F,C, | F,C E,C D,B, | C,A, =G,F, CC, | F,,F, F,F, F,F, | F,B,/=A,/ B,F, F,F, | %242
 F,C/B,/ CF, F,F, | F,D/4C/4B,/ CC/4B,/4A,/ B,B,/4A,/4G,/ | %244
 A,B,/4A,/4G,/ A,A,/4G,/4F,/ G,G,/4F,/4E,/ | F,G,/4F,/4E,/ F,F,/4E,/4D,/ E,E,/4D,/4C,/ | %246
 D,/C,/B,,/C,/ D,/F,/B,/F,/ D,/F,/C,/F,/ | D,/C,/B,,/C,/ D,/F,/B,/F,/ E,/D,/C,/B,,/ | %248
 =A,,/=G,,/F,,/G,,/ A,,/B,,/C,/D,/ E,/D,/E,/C,/ | D,/C,/B,,/G,/ A,,/F,/E,/F,/ G,,/E,/D,/E,/ | %250
 F,,3 E, D,B,, | G,E, F,E, F,F,, | B,,2 z B, A,G, | F,6 | F,2 z A,/G,/ F,E, | =D,2 z F,/E,/ D,C, | %256
 B,,A, F,=D, B,,B, | E,2 z G,/F,/ E,D, | C,2 z E,/D,/ C,B,, | A,,G, E,C, A,,A, | D,D, D,D, D,D, | %261
 D,F,/E,/ D,D, D,D, | D,B,,/C,/ D,E,/F,/ =G,E, | A,A,,/B,,/ C,/E,/A,/E,/ C,/E,/B,,/E,/ | %264
 C,/B,,/A,,/B,,/ C,/E,/A,/E,/ D,/C,/B,,/A,,/ | =G,,/F,,/E,,/F,,/ G,,/A,,/B,,/C,/ D,/C,/D,/B,,/ | %266
 C,F, =D,B,,/C,/ D,B,, | E,2 z E, E=D | E2 z E,/F,/ G,A, | B,2 z =D/C/ DB, | E,_C D,B, _C,A, | %271
 B,,A, A,A, A,A, | A,_C/B,/ A,A, A,A, | A,F,/G,/ A,G,/A,/ B,F, | %274
 G,/F,/E,/F,/ G,/A,/B,/A,/ G,/B,/F,/B,/ | E,/D,/C,/D,/ E,/F,/G,/F,/ E,/G,/D,/G,/ | %276
 C,/D,/E,/D,/ C,/B,,/A,,/G,,/ F,,/E,,/D,,/C,,/ | D,,2 z2 D,2 | A,2 z2 =A,2 | B,2 z2 B,,2 | %280
 F,,F, F,F, F,F, | F,B,/=A,/ B,F, F,F, | F,C/B,/ CF, F,F, | %283
 F,D/4C/4B,/ CC/4B,/4=A,/ B,B,/4A,/4=G,/ | =A,3 F, B,F, | E,F, E,F, F,,B,,- | %286
 B,, z B,/C/B,/A,/ G,/F,/E,- | E, z E,,E, =D, z | E,2 z E,/=D,/ E,F, | G,E, =A,F, B,F, | %290
 D,E, F,E, F,F,, | B,,6 | F,2 z A,/G,/ F,E, | =D,2 z F,/E,/ D,C, | B,,A, F,=D, B,,B, | %295
 E,2 z G,/F,/ E,D, | C,2 z E,/D,/ C,B,, | A,,G, E,C, A,,A, | D,D, D,D, D,D, | D,F,/E,/ D,D, D,D, | %300
 D,B,,/C,/ D,E,/F,/ =G,E, | A,A,,/B,,/ C,/E,/A,/E,/ C,/E,/B,,/E,/ | %302
 C,/B,,/A,,/B,,/ C,/E,/A,/E,/ D,/C,/B,,/A,,/ | =G,,/F,,/E,,/F,,/ G,,/A,,/B,,/C,/ D,/C,/D,/B,,/ | %304
 C,F, =D,B,,/C,/ D,B,, | E,2 z E, E=D | E2 z E,/F,/ G,A, | B,2 z =D/C/ DB, | E,_C D,B, _C,A, | %309
 B,,A, A,A, A,A, | A,_C/B,/ A,A, A,A, | A,F,/G,/ A,G,/A,/ B,F, | %312
 G,/F,/E,/F,/ G,/A,/B,/A,/ G,/B,/F,/B,/ | E,/D,/C,/D,/ E,/F,/G,/F,/ E,/G,/D,/G,/ | %314
 C,/D,/E,/D,/ C,/B,,/A,,/G,,/ F,,/E,,/D,,/C,,/ | D,,2 z2 D,2 | A,2 z2 =A,2 | B,2 z2 B,,2 | %318
 F,,F, F,F, F,F, | F,B,/=A,/ B,F, F,F, | F,C/B,/ CF, F,F, | %321
 F,D/4C/4B,/ CC/4B,/4=A,/ B,B,/4A,/4=G,/ | =A,3 F, B,F, | E,F, E,F, F,,B,,- | %324
 B,, z B,/C/B,/A,/ G,/F,/E, | E, z E,,E, =D, z | E,2 z E,/=D,/ E,F, | G,E, =A,F, B,F, | %328
 D,E, F,E, F,F,, | B,,6 |] %330
V:3
 x12 | x12 | x12 | x12 | x12 | x12 | x12 | x12 | x12 | x12 | x12 | x12 | x12 | x12 | %14
 z6{=Bc=d} c6- | cccBBA A6- | AddccB Bdd=GGB | B=EEE E2- E2 z4 | x12 | x12 | _c6- cBBAAB | B6 e6- | %22
 eddcce eddccF | F12- | FEGFBA GF E2 z2 | x12 | FFFEED D6- | DGGFFE EGGCCE | E=A,A,A, A,2- A,2 z4 | %29
 z12 | x12 | x12 | _CG,G,CCE EGGBB=c | c/ z/ z z2 z2 E2 z4 | x12 | x12 | x12 |[M:2/2] x8 | x8 | %39
 x8 | x8 | x8 | x8 | x8 | x8 | x8 | x8 | x8 | x8 | x8 | x8 | x8 | x8 | x8 | x8 | x8 | x8 | x8 | %58
 x8 | x8 | x8 | x8 | x8 | x8 | x8 | x8 | x8 | x8 | x8 | x8 | x8 | x8 | x8 | x8 | x8 | x8 | x8 | %77
 x8 | x8 | x8 | x8 | x8 | x8 | x8 | x8 | x8 | x8 | x8 | x8 | x8 | x8 | x8 | x8 | x8 | x8 | x8 | %96
 x8 | x8 | x8 | x8 | x8 | x8 | x8 | x8 | x8 | x8 | x8 | x8 | x8 | x8 | x8 | x8 | x8 | x8 | x8 | %115
 x8 | x8 | x8 | x8 | x8 | x8 | x8 | x8 | x8 | x8 | x8 | x8 | x8 | x8 | x8 | x8 | x8 | x8 | x8 | %134
 x8 | x8 | x8 | x8 | x8 | x8 | x8 | x8 | x8 | x8 | x8 | x8 | x8 | x8 | x8 | x8 | x8 | x8 | x8 | %153
 x8 | x8 | x8 | x8 | x8 | x8 | x8 | x8 | x8 | x8 | x8 | x8 | x8 | x8 | x8 | x8 | x8 | x8 | x8 | %172
 x8 | x8 | x8 | x8 | x8 | x8 |[M:4/4] x8 | x8 | x8 | x8 | x8 | x8 | x8 | x8 | x8 | x8 | x8 | x8 | %190
 x8 | x8 | x8 | x8 | x8 | x8 | x8 | x8 | x8 | x8 | x8 | x8 | x8 | x8 | x8 | x8 | x8 | x8 | %208
[M:3/4] x6 | x6 | x6 | x6 | x6 | x6 | x6 | x6 | x6 | x6 | x6 | x6 | x6 | x6 | x6 | x6 | x6 | x6 | %226
 x6 | x6 | x6 | x6 | x6 | x6 | x6 | x6 | x6 | x6 | x6 | x6 | x6 | x6 | x6 | x6 | x6 | x6 | x6 | %245
 x6 | x6 | x6 | x6 | x6 | x6 | x6 | x6 | x6 | x6 | x6 | x6 | x6 | x6 | x6 | x6 | x6 | x6 | x6 | %264
 x6 | x6 | x6 | x6 | x6 | x6 | x6 | x6 | x6 | x6 | x6 | x6 | x6 | x6 | x6 | x6 | x6 | x6 | x6 | %283
 x6 | x6 | x6 | x6 | x6 | x6 | x6 | x6 | x6 | x6 | x6 | x6 | x6 | x6 | x6 | x6 | x6 | x6 | x6 | %302
 x6 | x6 | x6 | x6 | x6 | x6 | x6 | x6 | x6 | x6 | x6 | x6 | x6 | x6 | x6 | x6 | x6 | x6 | x6 | %321
 x6 | x6 | x6 | x6 | x6 | x6 | x6 | x6 | x6 |] %330
V:4
 f6- fggffe | e6- effeed | d6- dbbaag | gffeed dccBB=A | =A=GGAAB BAABBc | c6 Bcc=dde | %6
 e3 Bdc deeffg | g6- gff=gg=a | =a6- a=gabab | %9
 c'3 b=ab b/4a/4b/4a/4 b/4a/4b/4a/4 b/4a/4b/4a/4{/=g} a z2 | %10
 [dfb]ffeed e/4d/4e/4d/4e/4d/4e/4d/4 e/4d/4e/4d/4e/4d/4e/4d/4 e/4d/4e/4d/4e/4d/4e/4d/4 | %11
 e/4d/4e/4d/4e/4d/4e/4d/4 e/4d/4e/4d/4e/4d/4e/4d/4 e/4d/4e/4d/4e/4d/4e/4d/4 e/4d/4e/4d/4c ccBA | %12
 A2 z4 z2 z fef |{e} d3 c f2- fedcBA | =G6 A3 cf=e | f2 z4 z ffeed | d2 f=e f2- f2{_e} d2 B2 | %17
 =G2 B4- B2 AG c2- | cf=e=g f2- f/e/f/g/ e3 f | f6- faaggf | f3 fef =d2 efde | e3 gfg ed c4- | %22
 c2 B2 c2 =A2 B2 c2 | d2 z4 z2 z bab | g2{ef} e3 d cB=ABcd | e3 dec f3 fef | d2 z4 z BBAAG | %27
 G2 B=A B2- B2{_A} G2{F} E2 | C2 E4- E2 DC F2- | FB=Ac B2- B/A/B/c/ A3 B | B3 d ce/=d/ deeffg | %31
 g3 e=de agfefd | e12- | e2 z4 z6 | B2 =AB cd/e/ d3 e c2 | !fermata!B12 | z12 |[M:2/2] B4 B4 | %38
 c2 =A2 F2 c2- | c2 B2- B2 =A2 | B6 z2 | c2 dc Bc d2 | e/4d/4e/4d/4e/4d/4e/4d/4 c2 z2 B2 | %43
 ABcF A2 A/4=G/4A/4G/4A/4G/4A/4G/4 | FA=GF cF=dF | EGFE BEcE | d8- | defg{d} c4- | cBed cB=AB | %49
 cB=A=G FEDC | B,2 B4 =A2 | B2 F2 d4- | d2 E2 c2 =d2 | EGFE BEcE | d2 F2 d4 | cABc Fc=Dc | %56
 B=GAB =EBCB | A2 F2 f4 | =e2 =g2 e2 c2 | F=GAB cfB=g | aABc FB=DF | BGAB EACE | Adef Bf=Gf | %63
 ecde =AeFe | d2 cd edcB | =A2 c2 A2 F2 | B2 b4 =a2 | %67
 c'/4b/4c'/4b/4c'/4b/4c'/4b/4 c'/4b/4c'/4b/4c'/4b/4c'/4b/4 c'/4b/4c'/4b/4c'/4b/4c'/4b/4 c'/4b/4c'/4b/4c'/4b/4c'/4b/4 | %68
 c'/4b/4c'/4b/4c'/4b/4c'/4b/4 c'/4b/4c'/4b/4c'/4b/4c'/4b/4 c'/4b/4c'/4b/4c'/4b/4c'/4b/4 c'/4b/4c'/4b/4c'/4b/4c'/4b/4 | %69
 c'/4b/4c'/4b/4c'/4b/4c'/4b/4 c'/4b/4c'/4b/4c'/4b/4c'/4b/4 c'/4b/4c'/4b/4c'/4b/4c'/4b/4 c'/4b/4c'/4b/4c'/4b/4c'/4b/4 | %70
{/=a} b2 B2 e4- | ecde =AeFe | d6 =d2 | edcB =AgBg | cedc B2 b=a | %75
 bdcB B/4=A/4B/4A/4B/4A/4B/4A/4 B/4A/4B/4A/4B | B4 z4 | F2 GF EF G2 | G2 AG FG A2 | A2 d2 c2 d2- | %80
 d2 cB ceEF | G2 AG FG A2 | A2 BA GA B2 | B2 e2 =d2 e2- | e2 dc dfFG | A2 FD d4- | d2 BG g4- | %87
 gefg d/4c/4d/4c/4d/4c/4d/4c/4cd | dad'c' ba=ga | ba=gf edcB | A2 a4 =g2 | a2 _c'b ab c'2 | %92
 d'/4_c'/4d'/4c'/4d'/4c'/4d'/4c'/4 b2 z2 a2 | gabe g2 g/4f/4g/4f/4g/4f/4g/4f/4 | edcd edcB | %95
 =A2 c2 A2 F2 | B2 b4 =a2 | bcBc dcBA | =GFGA BcAB | cBcd edcB | =A=GAB cdBc | dcde fedc | %102
 BABc dcBA | =GFGA BAGF | E8- | E2 FE DE F2 | G/4F/4G/4F/4G/4F/4G/4F/4 E2 z2 D2 | CDEA, D2 C2 | %108
 B,A,B,C B,CDE | F2 GF EF G2 | A/4G/4A/4G/4A/4G/4A/4G/4 F2 z2 E2 | DEFB, E2 D2 | CB,CD CDEF | %113
 G2 AG FG A2 | F2 BA =GA B2 | E3 F C/4B,/4C/4B,/4C/4B,/4C/4B,/4 C/4B,/4C/4B,/4A, | A,CB,A, DA,EA, | %117
 FA,EA, DA,FA, | EA,DA, CA,EA, | DFED =GDAD | B8- | Bef=g a4- | a=d=ef =g4- | gba=g f=efg | %124
 =e4 z4 | c2 dc Bc d2 | e/4d/4e/4d/4e/4d/4e/4d/4 c2 z2 B2 | ABcF A2 A/4=G/4A/4G/4A/4G/4A/4G/4 | %128
 F2 =GA BAGF | =E2 =G2 E2 C2 | F2 f4 =e2 | %131
 g/4f/4g/4f/4g/4f/4g/4f/4 g/4f/4g/4f/4g/4f/4g/4f/4 g/4f/4g/4f/4g/4f/4g/4f/4 g/4f/4g/4f/4g/4f/4g/4f/4 | %132
 g/4f/4g/4f/4g/4f/4g/4f/4 g/4f/4g/4f/4g/4f/4g/4f/4 g/4f/4g/4f/4g/4f/4g/4f/4 g/4f/4g/4f/4g/4f/4g/4f/4 | %133
 g/4f/4g/4f/4g/4f/4g/4f/4 g/4f/4g/4f/4g/4f/4g/4f/4 g/4f/4g/4f/4g/4f/4g/4f/4 g/4f/4g/4f/4g/4f/4g/4f/4 | %134
 g/4f/4g/4f/4edc d4- | d2 cB cBA=G | A3 B A/4=G/4A/4G/4A/4G/4A/4G/4 A/4G/4A/4G/4F | F4 z4 | B4 B4 | %139
 c2 =A2 F2 c2- | c2 B2- B2 =A2 | B6 z2 | c2 dc Bc d2 | e/4d/4e/4d/4e/4d/4e/4d/4 c2 z2 B2 | %144
 ABcF A2 A/4=G/4A/4G/4A/4G/4A/4G/4 | FA=GF cF=dF | EGFE BEcE | d8- | defg{d} c4- | cBed cB=AB | %150
 cB=A=G FEDC | B,2 B4 =A2 | B2 F2 d4- | d2 E2 c2 =d2 | EGFE BEcE | d2 F2 d4 | cABc Fc=Dc | %157
 B=GAB =EBCB | A2 F2 f4 | =e2 =g2 e2 c2 | F=GAB cfB=g | aABc FB=DF | BGAB EACE | Adef Bf=Gf | %164
 ecde =AeFe | d2 cd edcB | =A2 c2 A2 F2 | B2 b4 =a2 | %168
 c'/4b/4c'/4b/4c'/4b/4c'/4b/4 c'/4b/4c'/4b/4c'/4b/4c'/4b/4 c'/4b/4c'/4b/4c'/4b/4c'/4b/4 c'/4b/4c'/4b/4c'/4b/4c'/4b/4 | %169
 c'/4b/4c'/4b/4c'/4b/4c'/4b/4 c'/4b/4c'/4b/4c'/4b/4c'/4b/4 c'/4b/4c'/4b/4c'/4b/4c'/4b/4 c'/4b/4c'/4b/4c'/4b/4c'/4b/4 | %170
 c'/4b/4c'/4b/4c'/4b/4c'/4b/4 c'/4b/4c'/4b/4c'/4b/4c'/4b/4 c'/4b/4c'/4b/4c'/4b/4c'/4b/4 c'/4b/4c'/4b/4c'/4b/4c'/4b/4 | %171
{/=a} b2 B2 e4- | ecde =AeFe | d6 =d2 | edcB =AgBg | cedc B2 b=a | %176
 bdcB B/4=A/4B/4A/4B/4A/4B/4A/4 B/4A/4B/4A/4B | B4 z4 | %178
[M:4/4] z/ d/e/f/ G/e/F/d/ c/A/c/e/ a/d/c/g/ | f/e/g/f/ e/A/G/F/ E/c/d/e/ A/d/G/c/ | %180
 d/f/b/a/ g/f/e/d/ Tc>c e/d/f/e/ | f>b a/d/c/g/ f2 z2 | e4- e/E/=G/B/ e/A/G/d/ | %183
 c/B/d/c/ f/e/d/c/ B/=G/A/B/ E/A/D/G/ | A/=G/F/E/ D/C/B,/A,/ =G,A,/G,/ B,/A,/C/B,/ | %185
 C>F E/A,/=G,/D/ C/E/F/G/ A/C/=D/B/ | A/G/F/E/ z/ e/f/g/ f/e/d/c/ B/=A/B/c/ | %187
 F/B/c/d/ E/c/D/B/ =A/F/A/c/ f/e/g- | g/f/e/d/ c/d/=A/B/ AB/A/ c/B/d/c/ | %189
 d/e/4d/4c/4d/4B/ T=A>B B=d/e/ f/e/g/f/ | z f/g/4a/4 g/f/e/=d/ ec/_d/ e/d/f/e/ | %191
 z e/f/4g/4 f/e/d/e/4c/4 d/c/B/A/ =G/F/=E/F/ | _Fd =g2- g/f/=e/f/4g/4 B/A/B/=G/ | %193
 Ac/B/ d/c/B/c/ =G/b/a/f/ T=e>f | fa/g/ f/e/=d/e/ d2 z2 | z g/f/ e/d/c/d/ c2 z2 | %196
 z/ A/d/c/ B/A/G/F/ E/A/c/e/ a/d/c/g/ | f/e/g/f/ b/a/g/f/ e/c/d/e/ A/d/G/c/ | %198
 d/c/B/A/ G/F/E/F/4D/4 CD/C/ E/D/F/E/ | F>B A/D/C/G/ F/E/F/G/ A/G/B/A/ | %200
 z A/B/4_c/4 B/A/G/F/ G=G/A/ B/A/=c/B/ | z B/c/4d/4 c/B/A/=G/ AE/F/ _G/F/A/G/ | %202
 z G/A/4B/4 A/G/F/E/ F/A/B/c/ d2- | d/c/B/A/ G/F/E/F/ EB g2- | g/f/e/d/ c/B/A/B/ Ae/d/ e2- | %205
 e/A/d/c/ B/A/G/F/ E/G/A/c/ e/g/a/c/ | d>e Tc>d !fermata![FAd]4 | z8 | %208
[M:3/4] d/c/B/c/ d/f/b/f/ d/f/c/f/ | d/c/B/c/ d/f/b/f/ e/d/c/B/ | =A/=G/F/G/ A/B/c/d/ e/d/e/c/ | %211
 dB z2 z2 | z c cc cc | cf/=e/ fc cc | c=g/f/ gc cc | ca/4=g/4f/ gg/4f/4=e/ ff/4e/4=d/ | %216
 =e/=d/c/d/ e/f/=g/a/ b/a/b/g/ | af cf T=a3/2=g/4a/4 | bf df Tb3/2=a/4b/4 | c'2 z =A/B/ c/B/c/A/ | %220
 B/d/f/b/ e/d/e/a/ d/c/d/g/ | f/e/d/g/ c/B/c/f/ B/A/B/e/ | d/c/B/e/ A/G/A/d/ G/F/G/c/ | FF FF FF | %224
 FB/=A/ BF FF | Fc/B/ cF FF | Fd/4c/4B/ cc/4B/4=A/ BB/4A/4=G/ | PA3 F B2- | Bg T=A3 B | %229
 B/F/=G/=A/ B/c/d/e/ f/B/b | T=a6 | d/c/B/c/ d/f/b/f/ d/f/c/f/ | d/c/B/c/ d/f/b/f/ e/d/c/B/ | %233
 =A/=G/F/G/ A/B/c/d/ e/d/e/c/ | dB z2 z2 | z c cc cc | cf/=e/ fc cc | c=g/f/ gc cc | %238
 ca/4=g/4f/ gg/4f/4=e/ ff/4e/4=d/ | =e/=d/c/d/ e/f/=g/a/ b/a/b/g/ | af cf T=a3/2=g/4a/4 | %241
 bf df Tb3/2=a/4b/4 | c'2 z =A/B/ c/B/c/A/ | B/d/f/b/ e/d/e/a/ d/c/d/g/ | %244
 f/e/d/g/ c/B/c/f/ B/A/B/e/ | d/c/B/e/ A/G/A/d/ G/F/G/c/ | FF FF FF | FB/=A/ BF FF | Fc/B/ cF FF | %249
 Fd/4c/4B/ cc/4B/4=A/ BB/4A/4=G/ | PA3 F B2- | Bg T=A3 B | B/F/=G/=A/ B/c/d/e/ f/B/b | T=a6 | %254
 a/g/f/g/ a/b/_c'/b/ a/c'/g/c'/ | f/e/=d/e/ f/g/a/g/ f/a/e/a/ | =d/e/f/e/ d/c/B/A/ G/F/E/=D/ | %257
 Eg gg gg | gb/a/ gg gg | ge/f/ gf/g/ ae | f/e/d/e/ f/g/a/g/ f/a/e/a/ | %261
 d/c/B/c/ d/e/f/e/ d/f/c/f/ | B/c/d/c/ B/A/=G/F/ E/D/C/B,/ | C/E/A/=G/ A/c/e/c/ A/c/G/B/ | %264
 A/B/c/d/ e/a/c'/a/ b/a/=g/a/ | b/a/=g/f/ e/f/g/a/ b/a/b/g/ | aA z2 z2 | z B BB BB | Be/=d/ eB BB | %269
 Bf/e/ fB BB | Bg/4f/4e/ ff/4e/4=d/ ee/4d/4c/ | =da/b/ _c'/b/a/g/ fe | =df/g/ a/g/f/e/ dc | %273
 Ba f=d Bf | b/a/g/a/ b/a/g/f/ ed | ce/f/ g/f/e/d/ cB | Ag ec Ag | fa/4g/4f/ gg/4f/4e/ ff/4e/4d/ | %278
 eg/4f/4e/ ff/4e/4d/ ee/4d/4c/ | df/4e/4d/ ee/4d/4c/ dd/4c/4B/ | c/=A/F/=G/ A/B/c/d/ e/d/e/c/ | %281
 d/c/B/c/ d/f/b/f/ e/d/c/B/ | =A/=G/F/G/ A/B/c/d/ e/d/e/c/ | d/c/B/g/ e/c/=A/f/ d/B/=G/e/ | %284
 c/g/f/e/ c'/b/=a/=g/ f/e/d/c/ | B/A/B/e/ B/=A/4B/4A/4B/4A/- AB | Bf dB b2 | %287
 z E/F/ G/_c/e/c/ G/c/F/c/ | G/F/E/F/ G/_c/e/c/ B/A/G/F/ | E/D/C/D/ E/F/=G/=A/ B/c/d/e/ | %290
 f/e/f/g/ Tc3 B | B6 | a/g/f/g/ a/b/_c'/b/ a/c'/g/c'/ | f/e/=d/e/ f/g/a/g/ f/a/e/a/ | %294
 =d/e/f/e/ d/c/B/A/ G/F/E/=D/ | Eg gg gg | gb/a/ gg gg | ge/f/ gf/g/ ae | %298
 f/e/d/e/ f/g/a/g/ f/a/e/a/ | d/c/B/c/ d/e/f/e/ d/f/c/f/ | B/c/d/c/ B/A/=G/F/ E/D/C/B,/ | %301
 C/E/A/=G/ A/c/e/c/ A/c/G/B/ | A/B/c/d/ e/a/c'/a/ b/a/=g/a/ | b/a/=g/f/ e/f/g/a/ b/a/b/g/ | %304
 aA z2 z2 | z B BB BB | Be/=d/ eB BB | Bf/e/ fB BB | Bg/4f/4e/ ff/4e/4=d/ ee/4d/4c/ | %309
 =da/b/ _c'/b/a/g/ fe | =df/g/ a/g/f/e/ dc | Ba f=d Bf | b/a/g/a/ b/a/g/f/ ed | ce/f/ g/f/e/d/ cB | %314
 Ag ec Ag | fa/4g/4f/ gg/4f/4e/ ff/4e/4d/ | eg/4f/4e/ ff/4e/4d/ ee/4d/4c/ | %317
 df/4e/4d/ ee/4d/4c/ dd/4c/4B/ | c/=A/F/=G/ A/B/c/d/ e/d/e/c/ | d/c/B/c/ d/f/b/f/ e/d/c/B/ | %320
 =A/=G/F/G/ A/B/c/d/ e/d/e/c/ | d/c/B/g/ e/c/=A/f/ d/B/=G/e/ | c/g/f/e/ c'/b/=a/=g/ f/e/d/c/ | %323
 B/A/B/e/ B/=A/4B/4A/4B/4A/- AB | Bf dB b2 | z E/F/ G/_c/e/c/ G/c/F/c/ | %326
 G/F/E/F/ G/_c/e/c/ B/A/G/F/ | E/D/C/D/ E/F/=G/=A/ B/c/d/e/ | f/e/f/g/ Tc3 B | B6 |] %330
V:5
 d6- deeddc | c6- cddccB | B6- Bcc=dde | eddccF FEEDDC | CB,B,CCD DCCDDE | E6 =DEEFFG | %6
 G3 EB=A Bccdde | e6- eBBeec | c6- cBcdcd | e6 c4 z2 | Bdd=AcF F3 =GFG | %11
 =E2- E/F/E/F/ G/4F/4G/4F/4G/4F/4E/4F/4 =GEECCF | F3 A=GA F6- | F3 A=GA B2 F4 | %14
 z =G,C=DF=E F4- F=G | A2 z4 z AAccF | F4 A2 B2 =E2 =G2 | C3 =GFG =E4 z B | A2 B2 z d c4 B2 | %19
 A6- A_ccBBA | A2 F4- F2 G2 A2 | G6- G3 EDE | C2 D2 E2 C2 D2 E2 | F3 dcd B6- | B2 z4 CD E2 c2- | %25
 cB =A4 Bc d2 A2 | B2 z4 z DDFFB, | B,4 D2 E2[I:staff +1] =A,2 C2 | F,3 CB,C =A,4[I:staff -1] z E | %29
 D2 E2 z G F4 E2 | D4 E2 FGGAAB | B6 _cB A4 | G12- | G2 z4 z6 | F2 E2 G2 F=A B2 E2 | [DF]12 | x12 | %37
[M:2/2] D4 G2 E2 | E6 =A2 | F4 E4 | D6 z2 | x8 | x8 | x8 | x8 | x8 | x8 | x8 | x8 | x8 | x8 | x8 | %52
 x8 | x8 | x8 | x8 | x8 | x8 | x8 | x8 | x8 | x8 | x8 | x8 | x8 | x8 | x8 | x8 | x8 | x8 | x8 | %71
 x8 | x8 | x8 | x8 | x8 | x8 | x8 | x8 | x8 | x8 | x8 | x8 | x8 | x8 | x8 | x8 | x8 | x8 | x8 | %90
 x8 | x8 | x8 | x8 | x8 | x8 | x8 | x8 | x8 | x8 | x8 | x8 | x8 | x8 | x8 | x8 | x8 | x8 | x8 | %109
 x8 | x8 | x8 | x8 | x8 | x8 | x8 | x8 | x8 | x8 | x8 | x8 | x8 | x8 | x8 | x8 | x8 | x8 | x8 | %128
 x8 | x8 | x8 | x8 | x8 | x8 | x8 | x8 | x8 | x8 | D4 G2 E2 | E6 =A2 | F4 E4 | D6 z2 | x8 | x8 | %144
 x8 | x8 | x8 | x8 | x8 | x8 | x8 | x8 | x8 | x8 | x8 | x8 | x8 | x8 | x8 | x8 | x8 | x8 | x8 | %163
 x8 | x8 | x8 | x8 | x8 | x8 | x8 | x8 | x8 | x8 | x8 | x8 | x8 | x8 | x8 |[M:4/4] x8 | x8 | x8 | %181
 x8 | x8 | x8 | x8 | x8 | x8 | x8 | x8 | x8 | x8 | x8 | x8 | x8 | x8 | x8 | x8 | x8 | x8 | x8 | %200
 x8 | x8 | x8 | x8 | x8 | x8 | x8 | x8 |[M:3/4] x6 | x6 | x6 | x6 | x6 | x6 | x6 | x6 | x6 | x6 | %218
 x6 | x6 | x6 | x6 | x6 | x6 | x6 | x6 | x6 | x6 | x6 | x6 | x6 | x6 | x6 | x6 | x6 | x6 | x6 | %237
 x6 | x6 | x6 | x6 | x6 | x6 | x6 | x6 | x6 | x6 | x6 | x6 | x6 | x6 | x6 | x6 | x6 | x6 | x6 | %256
 x6 | x6 | x6 | x6 | x6 | x6 | x6 | x6 | x6 | x6 | x6 | x6 | x6 | x6 | x6 | x6 | x6 | x6 | x6 | %275
 x6 | x6 | x6 | x6 | x6 | x6 | x6 | x6 | x6 | x6 | x6 | x6 | x6 | x6 | x6 | x6 | x6 | x6 | x6 | %294
 x6 | x6 | x6 | x6 | x6 | x6 | x6 | x6 | x6 | x6 | x6 | x6 | x6 | x6 | x6 | x6 | x6 | x6 | x6 | %313
 x6 | x6 | x6 | x6 | x6 | x6 | x6 | x6 | x6 | x6 | x6 | x6 | x6 | x6 | x6 | x6 | x6 |] %330
V:6
 B,,D,F,B,=A,B, B,,4 z2 | C,E,G,B,=A,B, F,,4 z2 | B,,B,B,A,A,G, G,2 G,,2 F,,2 | %3
 E,,2 E,2 F,2 =G,2 =A,2 B,2 | E,2 z4 D,2 z4 | =A,,C,F,=A,=G,A, _A,,2 z4 | G,,B,,E,G,F,G, F,,2 z4 | %7
 E,,G,,B,,E,D,E, D,,2 z4 | C,E,G,B,=A,B, B,,2 z4 | =A,,C,E,G,F,G, F,,4 z2 | %10
 B,,4 z2 B,,D,F,B,=A,B, | =G,,B,,D,=G,F,G, .=E,,2 z4 | F,A,CF=EF D,F,A,DCD | %13
 B,,2 z4 =G,,2 A,,2 B,,2 | C,=E,=G,CB,C A,,C,F,A,G,A, | F,,2 z4 z DDCCB, | B,4 C2 D2 =G,2 B,2 | %17
 =E,F,=G,B,A,B, C,2 z2 E,2 | F,2 D,2 B,,2 C,4 C,,2 | F,,A,,C,F,E,F, E,,2 z4 | %20
 =D,,F,,B,,=D,C,D, B,,,2 z4 | E,G,B,EDE C,E,=A,CB,C | =A,,2 z4 F,,2 z4 | %23
 B,,D,F,B,A,B, G,,B,,D,G,F,G, | E,,2 z4 E,F,F,G,G,F, | F,=A,CFEF D,F,B,DCD | B,,2 z4 z G,G,F,F,E, | %27
 E,4 F,2 G,2 C,2 E,2 | =A,,B,,C,E,D,E, F,,2 z2 A,,2 | B,,2 G,,2 E,,2 F,,4 F,2 | %30
 B,,D,F,B,=A,B, A,,2 z4 | G,,B,,E,G,F,G, F,,2 z4 | E,,12- | E,,2 z4 z6 | D,,2 G,,2 E,,2 F,,4 F,,2 | %35
 B,,D,F,B,=A,B, B,,,6 | z12 |[M:2/2] B,,4 B,4 | =A,2 C2 A,2 F,2 | B,2 D,2 E,2 F,2 | %40
 B,,2 B,2 A,2 =G,2 | F,4[I:staff -1] F4 | =E2 =G2 E2 C2 | F2[I:staff +1] A,2 B,2 C2 | F,4 z2 B,2 | %45
 E,4 z2 A,2 | D,2 B,,2 =G,,2 B,,2 | C,2 =A,,2 F,,2 A,,2 | B,,2 G,F, E,F, G,2 | %49
 A,/4G,/4A,/4G,/4A,/4G,/4A,/4G,/4 F,2 z2 E,2 | D,E,F,B,, D,2 D,/4C,/4D,/4C,/4D,/4C,/4D,/4C,/4 | %51
 B,,D,C,B,, F,B,,=G,B,, | A,2 A,,2 G,,2 F,,2 | E,,2 B,,2 G,,2 E,,2 | B,,2 F,2 D,2 B,,2 | %55
 F,,2 F,2 =D,2 F,2 | =G,,2 =E,2 C,2 E,2 | F,,2 D,C, B,,C, D,2 | %58
 E,/4D,/4E,/4D,/4E,/4D,/4E,/4D,/4 C,2 z2 B,,2 | A,,B,,C,F,, A,,2 =G,,2 | F,,F,=G,A, =D,A,B,,A, | %61
 G,E,F,G, C,G,A,,G, | F,2 B,2 =G,2 B,2 | C2 =A,2 F,2 A,2 | B,CED CB,=A,B, | CB,=A,=G, F,E,D,C, | %66
 B,,2 D,2 E,2 F,2 | G,2 A,2 G,2 F,2 | E,2 D,2 C,2 E,2 | D,2 C,2 B,,2 D,2 | C,2 D,2 C,2 B,,2 | %71
 =A,,2 =A,2 F,2 A,2 | B,CB,A, G,B,F,B, | E,F,E,D, C,E,B,,E, | =A,,2 F,,2 B,,2 G,,2 | %75
 D,,2 E,,2 F,,4 | B,,B,A,G, F,A,E,A, | D,2 D,2 D,2 D,2 | C,2 C,2 C,2 C,2 | D,2 F,2 E,2 D,2 | %80
 A,,2 A,2 G,2 F,2 | E,2 E,2 E,2 E,2 | =D,2 D,2 D,2 D,2 | E,2 G,2 F,2 E,2 | B,,2 B,2 A,2 G,2 | %85
 F,2 E,2 F,2 D,2 | G,2 F,2 E,2 D,2 | C,2 D,2 A,2 A,,2 | D2 FE DE F2 | %89
 G/4F/4G/4F/4G/4F/4G/4F/4 E2 z2 D2 | CDEA, C2 C/4B,/4C/4B,/4C/4B,/4C/4B,/4 | A,2 F,G, A,2 F,2 | %92
 =D,2 F,2 D,2 B,,2 | E,2 G,,2 A,,2 B,,2 | E,B,ED CB,=A,B, | CB,=A,=G, F,E,D,C, | B,,2 D,2 E,2 F,2 | %97
 B,2 DC B,C D2 | D2 C2 B,2 D2 | C2 ED CD E2 | E2 D2 C2 E2 | D2 FE DE F2 | F2 E2 D2 F2 | %103
 E2 DC B,2 A,2 | =G,A,G,F, E,D,C,B,, | A,,2 A,,2 A,,2 A,,2 | =G,,2 G,,2 G,,2 G,,2 | %107
 A,,2 C,2 B,,2 A,,2 | E,,2 E,2 D,2 C,2 | B,,2 B,,2 B,,2 B,,2 | =A,,2 A,,2 A,,2 A,,2 | %111
 B,,2 D,2 C,2 B,,2 | F,,2 F,2 E,2 D,2 | C,2 B,,2 C,2 A,,2 | D,2 C,2 B,,2 A,,2 | %115
 =G,,2 A,,2 E,2 E,,2 | A,,2 A,,2 B,,2 C,2 | D,2 C,2 B,,2 D,2 | C,2 B,,2 A,,2 C,2 | %119
 B,,2 C,2 B,,2 A,,2 | =G,,2 =G,2 E,2 G,2 | A,B,A,=G, F,A,=D,F, | =G,A,G,F, =E,G,C,E, | %123
 F,=G,F,E, D,F,B,,D, | C,D,C,B,, A,,C,=G,,C, | F,,4 F,4 | =E,2 =G,2 E,2 C,2 | F,2 A,,2 B,,2 C,2 | %128
 F,=G,B,A, G,F,=E,F, | =G,F,=E,=D, C,B,,A,,=G,, | F,,2 A,,2 B,,2 C,2 | F,A,=G,F, B,F,CF, | %132
 DF,CF, B,F,DF, | CF,B,F, A,F,CF, | B,=G,A,B, =E,B,G,B, | C,=G,=E,G, A,,E,C,E, | %136
 F,,2 B,,2 C,2 C,,2 | F,,2 F,G, F,E,D,C, | B,,4 B,4 | =A,2 C2 A,2 F,2 | B,2 D,2 E,2 F,2 | %141
 B,,2 B,2 A,2 =G,2 | F,4 F4 |[I:staff -1] =E2 =G2 E2 C2 | F2[I:staff +1] A,2 B,2 C2 | F,4 z2 B,2 | %146
 E,4 z2 A,2 | D,2 B,,2 =G,,2 B,,2 | C,2 =A,,2 F,,2 A,,2 | B,,2 G,F, E,F, G,2 | %150
 A,/4G,/4A,/4G,/4A,/4G,/4A,/4G,/4 F,2 z2 E,2 | D,E,F,B,, D,2 D,/4C,/4D,/4C,/4D,/4C,/4D,/4C,/4 | %152
 B,,D,C,B,, F,B,,=G,B,, | A,2 A,,2 G,,2 F,,2 | E,,2 B,,2 G,,2 E,,2 | B,,2 F,2 D,2 B,,2 | %156
 F,,2 F,2 =D,2 F,2 | =G,,2 =E,2 C,2 E,2 | F,,2 D,C, B,,C, D,2 | %159
 E,/4D,/4E,/4D,/4E,/4D,/4E,/4D,/4 C,2 z2 B,,2 | A,,B,,C,F,, A,,2 =G,,2 | F,,F,=G,A, =D,A,B,,A, | %162
 G,E,F,G, C,G,A,,G, | F,2 B,2 =G,2 B,2 | C2 =A,2 F,2 A,2 | B,CED CB,=A,B, | CB,=A,=G, F,E,D,C, | %167
 B,,2 D,2 E,2 F,2 | G,2 A,2 G,2 F,2 | E,2 D,2 C,2 E,2 | D,2 C,2 B,,2 D,2 | C,2 D,2 C,2 B,,2 | %172
 =A,,2 =A,2 F,2 A,2 | B,CB,A, G,B,F,B, | E,F,E,D, C,E,B,,E, | =A,,2 F,,2 B,,2 G,,2 | %176
 D,,2 E,,2 F,,4 | B,,4 z4 |[M:4/4] D,DCD A,G,F,E, | D,DCD A,G,F,E, | D,DCD A,G,F,E, | %181
 D,G,A,A,, D,,D,C,B,, | A,,A,=G,A, E,D,C,B,, | A,,A,=G,A, E,D,C,B,, | A,,A,,=G,,A,, E,,D,C,B,, | %185
 A,,D,E,E,, A,,A,G,F, | E,G,C,E, =A,,F,,=G,,A,, | B,,B,=A,B, F,E,D,C, | B,,B,=A,B, F,E,D,C, | %189
 B,,E,F,F,, B,,B,F,=D, | B,,B,A,B, E,A,E,C, | A,,A,G,A, D,C,B,,A,, | =G,,F,,=E,,G,, C,=D,=E,C, | %193
 F,,F,=E,F, D,B,,C,C,, | F,,F,E,F, B,,A,,G,,F,, | E,,E,D,E, A,,G,,F,,E,, | D,,DCD A,G,F,E, | %197
 D,DCD A,G,F,E, | D,D,C,D, A,,G,F,E, | D,G,A,A,, D,D,A,,F,, | D,,D,_C,D, G,,E,B,,=G,, | %201
 E,,E,D,E, A,,A,E,C, | A,,A,G,A, D,C,B,,D, | G,,F,,E,,D,, C,,E,,A,,B,, | C,D,E,F, G,A,B,C | %205
 D/C/B,/A,/ G,/F,/E,/D,/ G,,2 z F,, | B,,G,,A,,A,, !fermata!D,,4 | z8 |[M:3/4] B,2 z B,, B,=A, | %209
 B,2 z B,,/C,/ D,E, | F,2 z =A,/=G,/ A,F, | B,,F, A,,F, =G,,=E, | F,,2 z F,, F,=E, | %213
 F,2 z F,,/=G,,/ A,,B,, | C,2 z =E,/=D,/ _F,C, | F,C E,C D,B, | C,A, =G,F, CC, | F,,F, F,F, F,F, | %218
 F,B,/=A,/ B,F, F,F, | F,C/B,/ CF, F,F, | F,D/4C/4B,/ CC/4B,/4A,/ B,B,/4A,/4G,/ | %221
 A,B,/4A,/4G,/ A,A,/4G,/4F,/ G,G,/4F,/4E,/ | F,G,/4F,/4E,/ F,F,/4E,/4D,/ E,E,/4D,/4C,/ | %223
 D,/C,/B,,/C,/ D,/F,/B,/F,/ D,/F,/C,/F,/ | D,/C,/B,,/C,/ D,/F,/B,/F,/ E,/D,/C,/B,,/ | %225
 =A,,/=G,,/F,,/G,,/ A,,/B,,/C,/D,/ E,/D,/E,/C,/ | D,/C,/B,,/G,/ A,,/F,/E,/F,/ G,,/E,/D,/E,/ | %227
 F,,3 E, D,B,, | G,E, F,E, F,F,, | B,,2 z B, A,G, | F,6 | B,2 z B,, B,=A, | B,2 z B,,/C,/ D,E, | %233
 F,2 z =A,/=G,/ A,F, | B,,F, A,,F, =G,,=E, | F,,2 z F,, F,=E, | F,2 z F,,/=G,,/ A,,B,, | %237
 C,2 z =E,/=D,/ _F,C, | F,C E,C D,B, | C,A, =G,F, CC, | F,,F, F,F, F,F, | F,B,/=A,/ B,F, F,F, | %242
 F,C/B,/ CF, F,F, | F,D/4C/4B,/ CC/4B,/4A,/ B,B,/4A,/4G,/ | %244
 A,B,/4A,/4G,/ A,A,/4G,/4F,/ G,G,/4F,/4E,/ | F,G,/4F,/4E,/ F,F,/4E,/4D,/ E,E,/4D,/4C,/ | %246
 D,/C,/B,,/C,/ D,/F,/B,/F,/ D,/F,/C,/F,/ | D,/C,/B,,/C,/ D,/F,/B,/F,/ E,/D,/C,/B,,/ | %248
 =A,,/=G,,/F,,/G,,/ A,,/B,,/C,/D,/ E,/D,/E,/C,/ | D,/C,/B,,/G,/ A,,/F,/E,/F,/ G,,/E,/D,/E,/ | %250
 F,,3 E, D,B,, | G,E, F,E, F,F,, | B,,2 z B, A,G, | F,6 | F,2 z A,/G,/ F,E, | =D,2 z F,/E,/ D,C, | %256
 B,,A, F,=D, B,,B, | E,2 z G,/F,/ E,D, | C,2 z E,/D,/ C,B,, | A,,G, E,C, A,,A, | D,D, D,D, D,D, | %261
 D,F,/E,/ D,D, D,D, | D,B,,/C,/ D,E,/F,/ =G,E, | A,A,,/B,,/ C,/E,/A,/E,/ C,/E,/B,,/E,/ | %264
 C,/B,,/A,,/B,,/ C,/E,/A,/E,/ D,/C,/B,,/A,,/ | =G,,/F,,/E,,/F,,/ G,,/A,,/B,,/C,/ D,/C,/D,/B,,/ | %266
 C,F, =D,B,,/C,/ D,B,, | E,2 z E, E=D | E2 z E,/F,/ G,A, | B,2 z =D/C/ DB, | E,_C D,B, _C,A, | %271
 B,,A, A,A, A,A, | A,_C/B,/ A,A, A,A, | A,F,/G,/ A,G,/A,/ B,F, | %274
 G,/F,/E,/F,/ G,/A,/B,/A,/ G,/B,/F,/B,/ | E,/D,/C,/D,/ E,/F,/G,/F,/ E,/G,/D,/G,/ | %276
 C,/D,/E,/D,/ C,/B,,/A,,/G,,/ F,,/E,,/D,,/C,,/ | D,,2 z2 D,2 | A,2 z2 =A,2 | B,2 z2 B,,2 | %280
 F,,F, F,F, F,F, | F,B,/=A,/ B,F, F,F, | F,C/B,/ CF, F,F, | %283
 F,D/4C/4B,/ CC/4B,/4=A,/ B,B,/4A,/4=G,/ | =A,3 F, B,F, | G,E, F,E, F,F,, | %286
 B,,2 z B,/C/ B,/A,/G,/F,/ | E,2 z E,, E,=D, | E,2 z E,/=D,/ E,F, | G,E, =A,F, B,F, | %290
 D,E, F,E, F,F,, | B,,6 | F,2 z A,/G,/ F,E, | =D,2 z F,/E,/ D,C, | B,,A, F,=D, B,,B, | %295
 E,2 z G,/F,/ E,D, | C,2 z E,/D,/ C,B,, | A,,G, E,C, A,,A, | D,D, D,D, D,D, | D,F,/E,/ D,D, D,D, | %300
 D,B,,/C,/ D,E,/F,/ =G,E, | A,A,,/B,,/ C,/E,/A,/E,/ C,/E,/B,,/E,/ | %302
 C,/B,,/A,,/B,,/ C,/E,/A,/E,/ D,/C,/B,,/A,,/ | =G,,/F,,/E,,/F,,/ G,,/A,,/B,,/C,/ D,/C,/D,/B,,/ | %304
 C,F, =D,B,,/C,/ D,B,, | E,2 z E, E=D | E2 z E,/F,/ G,A, | B,2 z =D/C/ DB, | E,_C D,B, _C,A, | %309
 B,,A, A,A, A,A, | A,_C/B,/ A,A, A,A, | A,F,/G,/ A,G,/A,/ B,F, | %312
 G,/F,/E,/F,/ G,/A,/B,/A,/ G,/B,/F,/B,/ | E,/D,/C,/D,/ E,/F,/G,/F,/ E,/G,/D,/G,/ | %314
 C,/D,/E,/D,/ C,/B,,/A,,/G,,/ F,,/E,,/D,,/C,,/ | D,,2 z2 D,2 | A,2 z2 =A,2 | B,2 z2 B,,2 | %318
 F,,F, F,F, F,F, | F,B,/=A,/ B,F, F,F, | F,C/B,/ CF, F,F, | %321
 F,D/4C/4B,/ CC/4B,/4=A,/ B,B,/4A,/4=G,/ | =A,3 F, B,F, | G,E, F,E, F,F,, | %324
 B,,2 z B,/C/ B,/A,/G,/F,/ | E,2 z E,, E,=D, | E,2 z E,/=D,/ E,F, | G,E, =A,F, B,F, | %328
 D,E, F,E, F,F,, | B,,6 |] %330

